icons/badge/alert/shield.svg

<svg width="32" height="32" viewBox="0 0 32 32" fill="none" xmlns="http://www.w3.org/2000/svg">
<path fill-rule="evenodd" clip-rule="evenodd" d="M15.4805 1.1041C15.8207 1.01262 16.179 1.01262 16.5192 1.1041L28.5192 4.33085C29.3927 4.56573 29.9999 5.35769 29.9999 6.26224V12C29.9999 21.4849 23.6658 28.3497 16.2746 30.4615L15.9999 30.54L15.7252 30.4615C8.334 28.3497 1.99988 21.4849 1.99988 12V6.26224C1.99988 5.35769 2.60701 4.56573 3.48053 4.33085L15.4805 1.1041ZM15.9999 3.03549L3.99988 6.26224L3.99988 12C3.99988 20.3968 9.50951 26.4794 15.9999 28.4573C22.4902 26.4794 27.9999 20.3968 27.9999 12L27.9999 6.26224L15.9999 3.03549ZM17.4999 19V22H14.4999V19H17.4999ZM16.9799 16L16.9797 7.99996L15.0201 8.00002L15.0203 16L16.9799 16Z" fill="black"/>
</svg>

<svg width="32" height="32" viewBox="0 0 32 32" xmlns="http://www.w3.org/2000/svg">
    <path fill-rule="evenodd" d="M15.48 1.104a2 2 0 011.04 0l12 3.227A2 2 0 0130 6.262V12c0 9.485-6.334 16.35-13.725 18.462L16 30.54l-.275-.078C8.334 28.35 2 21.485 2 12V6.262a2 2 0 011.48-1.931l12-3.227zM16 3.035L4 6.262V12c0 8.397 5.51 14.48 12 16.457C22.49 26.48 28 20.397 28 12V6.262L16 3.035zM17.5 19v3h-3v-3h3zm-.52-3V8h-1.96v8h1.96z"/>
</svg>
